assets/images/vector/icons/box_icon.svg

<svg fill="none" height="54" viewBox="0 0 52 54" width="52" xmlns="http://www.w3.org/2000/svg"><g stroke="#111" stroke-linecap="round" stroke-linejoin="round" stroke-width="10"><path d="m25.834 5v20"/><path d="m40 15h-28.3333c-3.68193 0-6.6667 2.9848-6.6667 6.6667v20c0 3.6819 2.98477 6.6666 6.6667 6.6666h28.3333c3.6819 0 6.6667-2.9847 6.6667-6.6666v-20c0-3.6819-2.9848-6.6667-6.6667-6.6667z"/><path d="m5.83398 18.4467 4.83002-9.74003c1.1267-2.27 3.44-3.70667 5.9733-3.70667h18.3933c2.5334 0 4.8467 1.43667 5.9734 3.70667l4.83 9.74333"/><path d="m13.334 40h6.6667"/></g></svg>

<svg width="52" height="54" viewBox="0 0 52 54" fill="none" xmlns="http://www.w3.org/2000/svg">
<path d="M25.834 5V25" stroke="#111111" stroke-width="10" stroke-linecap="round" stroke-linejoin="round"/>
<path d="M40 15H11.6667C7.98477 15 5 17.9848 5 21.6667V41.6667C5 45.3486 7.98477 48.3333 11.6667 48.3333H40C43.6819 48.3333 46.6667 45.3486 46.6667 41.6667V21.6667C46.6667 17.9848 43.6819 15 40 15Z" stroke="#111111" stroke-width="10" stroke-linecap="round" stroke-linejoin="round"/>
<path d="M5.83398 18.4467L10.664 8.70667C11.7907 6.43667 14.104 5 16.6373 5H35.0306C37.564 5 39.8773 6.43667 41.004 8.70667L45.834 18.45" stroke="#111111" stroke-width="10" stroke-linecap="round" stroke-linejoin="round"/>
<path d="M13.334 40H20.0007" stroke="#111111" stroke-width="10" stroke-linecap="round" stroke-linejoin="round"/>
</svg>
